Adwaita++-Light/panel/24/pomodoneapp-paused.svg

<svg height="24" width="24" xmlns="http://www.w3.org/2000/svg">
  <path d="m12 4c-4.4182781-.0000001-8.0000001 3.5817219-8 8 0 4.418278 3.581722 8 8 8s8-3.581722 8-8c0-4.4182781-3.581722-8-8-8zm-2.5 4h5c.831 0 1.5.669 1.5 1.5v5c0 .831-.669 1.5-1.5 1.5h-5c-.831 0-1.5-.669-1.5-1.5v-5c0-.831.669-1.5 1.5-1.5zm0 1c-.277 0-.5.223-.5.5v5c0 .277.223.5.5.5h1c.277 0 .5-.223.5-.5v-5c0-.277-.223-.5-.5-.5zm4 0c-.277 0-.5.223-.5.5v5c0 .277.223.5.5.5h1c.277 0 .5-.223.5-.5v-5c0-.277-.223-.5-.5-.5z" fill="#444"/>
</svg>

<svg xmlns="http://www.w3.org/2000/svg" width="24" height="24" version="1.1">
 <defs>
  <style id="current-color-scheme" type="text/css">
   .ColorScheme-Text { color:#444444; } .ColorScheme-Highlight { color:#4285f4; }
  </style>
 </defs>
 <path style="fill:currentColor" class="ColorScheme-Text" d="m 12,4 c -4.4182781,-10e-8 -8.0000001,3.5817219 -8,8 0,4.418278 3.581722,8 8,8 4.418278,0 8,-3.581722 8,-8 C 20,7.5817219 16.418278,4 12,4 Z M 9.5,8 h 5 C 15.331,8 16,8.669 16,9.5 v 5 c 0,0.831 -0.669,1.5 -1.5,1.5 h -5 C 8.669,16 8,15.331 8,14.5 v -5 C 8,8.669 8.669,8 9.5,8 Z m 0,1 C 9.223,9 9,9.223 9,9.5 v 5 C 9,14.777 9.223,15 9.5,15 h 1 c 0.277,0 0.5,-0.223 0.5,-0.5 v -5 C 11,9.223 10.777,9 10.5,9 Z m 4,0 C 13.223,9 13,9.223 13,9.5 v 5 c 0,0.277 0.223,0.5 0.5,0.5 h 1 c 0.277,0 0.5,-0.223 0.5,-0.5 v -5 C 15,9.223 14.777,9 14.5,9 Z"/>
</svg>
